images/content/johnson-solids/biaugmented-pentagonal-prism.svg

<?xml version="1.0" encoding="UTF-8"?>
<svg xmlns="http://www.w3.org/2000/svg" xmlns:xlink="http://www.w3.org/1999/xlink" width="260pt" height="200pt" viewBox="0 0 260 200" version="1.2">
<g id="surface1">
<path style=" stroke:none;fill-rule:nonzero;fill:rgb(77.929688%,63.476562%,70.117188%);fill-opacity:1;" d="M 89.429688 151.984375 L 6.492188 169.09375 L 37.410156 80.21875 "/>
<path style="fill:none;stroke-width:7.7;stroke-linecap:round;stroke-linejoin:round;stroke:rgb(0%,0%,0%);stroke-opacity:1;stroke-miterlimit:10;" d="M 894.296875 480.15625 L 64.921875 309.0625 L 374.101562 1197.8125 Z M 894.296875 480.15625 " transform="matrix(0.1,0,0,-0.1,0,200)"/>
<path style=" stroke:none;fill-rule:nonzero;fill:rgb(66.209412%,76.756287%,92.771912%);fill-opacity:1;" d="M 88.679688 192.425781 L 6.492188 169.09375 L 89.429688 151.984375 "/>
<path style="fill:none;stroke-width:7.7;stroke-linecap:round;stroke-linejoin:round;stroke:rgb(0%,0%,0%);stroke-opacity:1;stroke-miterlimit:10;" d="M 886.796875 75.742188 L 64.921875 309.0625 L 894.296875 480.15625 Z M 886.796875 75.742188 " transform="matrix(0.1,0,0,-0.1,0,200)"/>
<path style="fill-rule:nonzero;fill:rgb(56.639099%,68.943787%,92.381287%);fill-opacity:1;stroke-width:7.7;stroke-linecap:round;stroke-linejoin:round;stroke:rgb(0%,0%,0%);stroke-opacity:1;stroke-miterlimit:10;" d="M 894.296875 480.15625 L 1786.09375 704.21875 L 1841.796875 313.320312 " transform="matrix(0.1,0,0,-0.1,0,200)"/>
<path style="fill-rule:nonzero;fill:rgb(56.639099%,68.943787%,92.381287%);fill-opacity:1;stroke-width:7.7;stroke-linecap:round;stroke-linejoin:round;stroke:rgb(0%,0%,0%);stroke-opacity:1;stroke-miterlimit:10;" d="M 1841.796875 313.320312 L 886.796875 75.742188 L 894.296875 480.15625 " transform="matrix(0.1,0,0,-0.1,0,200)"/>
<path style="fill-rule:nonzero;fill:rgb(70.701599%,53.318787%,65.039062%);fill-opacity:1;stroke-width:7.7;stroke-linecap:round;stroke-linejoin:round;stroke:rgb(0%,0%,0%);stroke-opacity:1;stroke-miterlimit:10;" d="M 1786.09375 704.21875 L 894.296875 480.15625 L 374.101562 1197.8125 " transform="matrix(0.1,0,0,-0.1,0,200)"/>
<path style=" stroke:none;fill-rule:nonzero;fill:rgb(60.546875%,45.605469%,65.234375%);fill-opacity:1;" d="M 185.183594 42.3125 L 252.90625 107.125 L 178.609375 129.578125 "/>
<path style="fill:none;stroke-width:7.7;stroke-linecap:round;stroke-linejoin:round;stroke:rgb(0%,0%,0%);stroke-opacity:1;stroke-miterlimit:10;" d="M 1851.835938 1576.875 L 2529.0625 928.75 L 1786.09375 704.21875 Z M 1851.835938 1576.875 " transform="matrix(0.1,0,0,-0.1,0,200)"/>
<path style=" stroke:none;fill-rule:nonzero;fill:rgb(45.701599%,58.59375%,89.256287%);fill-opacity:1;" d="M 184.179688 168.667969 L 178.609375 129.578125 L 252.90625 107.125 "/>
<path style="fill:none;stroke-width:7.7;stroke-linecap:round;stroke-linejoin:round;stroke:rgb(0%,0%,0%);stroke-opacity:1;stroke-miterlimit:10;" d="M 1841.796875 313.320312 L 1786.09375 704.21875 L 2529.0625 928.75 Z M 1841.796875 313.320312 " transform="matrix(0.1,0,0,-0.1,0,200)"/>
<path style="fill-rule:nonzero;fill:rgb(70.701599%,53.318787%,65.039062%);fill-opacity:1;stroke-width:7.7;stroke-linecap:round;stroke-linejoin:round;stroke:rgb(0%,0%,0%);stroke-opacity:1;stroke-miterlimit:10;" d="M 961.875 1898.125 L 1851.835938 1576.875 L 1786.09375 704.21875 " transform="matrix(0.1,0,0,-0.1,0,200)"/>
<path style=" stroke:none;fill-rule:nonzero;fill:rgb(70.701599%,53.318787%,65.039062%);fill-opacity:1;" d="M 37.410156 80.21875 L 96.1875 10.1875 L 178.609375 129.578125 "/>
<path style="fill:none;stroke-width:7.7;stroke-linecap:round;stroke-linejoin:round;stroke:rgb(0%,0%,0%);stroke-opacity:1;stroke-miterlimit:10;" d="M 374.101562 1197.8125 L 961.875 1898.125 " transform="matrix(0.1,0,0,-0.1,0,200)"/>
<path style=" stroke:none;fill-rule:nonzero;fill:rgb(0%,0%,51.171875%);fill-opacity:1;" d="M 32.875 116.496094 L 37.410156 80.21875 L 6.492188 169.09375 "/>
<path style="fill:none;stroke-width:7.7;stroke-linecap:round;stroke-linejoin:round;stroke:rgb(0%,0%,0%);stroke-opacity:1;stroke-miterlimit:10;" d="M 328.75 835.039062 L 374.101562 1197.8125 L 64.921875 309.0625 Z M 328.75 835.039062 " transform="matrix(0.1,0,0,-0.1,0,200)"/>
<path style="fill-rule:nonzero;fill:rgb(9.690857%,32.397461%,79.881287%);fill-opacity:1;stroke-width:7.7;stroke-linecap:round;stroke-linejoin:round;stroke:rgb(0%,0%,0%);stroke-opacity:1;stroke-miterlimit:10;" d="M 961.875 1898.125 L 374.101562 1197.8125 L 328.75 835.039062 " transform="matrix(0.1,0,0,-0.1,0,200)"/>
<path style=" stroke:none;fill-rule:nonzero;fill:rgb(83.59375%,96.679688%,88.867188%);fill-opacity:1;" d="M 191.394531 76.183594 L 252.90625 107.125 L 185.183594 42.3125 "/>
<path style="fill:none;stroke-width:7.7;stroke-linecap:round;stroke-linejoin:round;stroke:rgb(0%,0%,0%);stroke-opacity:1;stroke-miterlimit:10;" d="M 1913.945312 1238.164062 L 2529.0625 928.75 L 1851.835938 1576.875 Z M 1913.945312 1238.164062 " transform="matrix(0.1,0,0,-0.1,0,200)"/>
<path style="fill-rule:nonzero;fill:rgb(74.21875%,89.451599%,94.726562%);fill-opacity:1;stroke-width:7.7;stroke-linecap:round;stroke-linejoin:round;stroke:rgb(0%,0%,0%);stroke-opacity:1;stroke-miterlimit:10;" d="M 1851.835938 1576.875 L 961.875 1898.125 L 958.984375 1579.0625 " transform="matrix(0.1,0,0,-0.1,0,200)"/>
<path style="fill-rule:nonzero;fill:rgb(74.21875%,89.451599%,94.726562%);fill-opacity:1;stroke-width:7.7;stroke-linecap:round;stroke-linejoin:round;stroke:rgb(0%,0%,0%);stroke-opacity:1;stroke-miterlimit:10;" d="M 958.984375 1579.0625 L 1913.945312 1238.164062 L 1851.835938 1576.875 " transform="matrix(0.1,0,0,-0.1,0,200)"/>
<path style=" stroke:none;fill-rule:nonzero;fill:rgb(57.421875%,35.400391%,54.296875%);fill-opacity:1;" d="M 32.875 116.496094 L 6.492188 169.09375 L 88.679688 192.425781 "/>
<path style="fill:none;stroke-width:7.7;stroke-linecap:round;stroke-linejoin:round;stroke:rgb(0%,0%,0%);stroke-opacity:1;stroke-miterlimit:10;" d="M 328.75 835.039062 L 64.921875 309.0625 L 886.796875 75.742188 Z M 328.75 835.039062 " transform="matrix(0.1,0,0,-0.1,0,200)"/>
<path style="fill-rule:nonzero;fill:rgb(9.690857%,32.397461%,79.881287%);fill-opacity:1;stroke-width:7.7;stroke-linecap:round;stroke-linejoin:round;stroke:rgb(0%,0%,0%);stroke-opacity:1;stroke-miterlimit:10;" d="M 328.75 835.039062 L 958.984375 1579.0625 L 961.875 1898.125 " transform="matrix(0.1,0,0,-0.1,0,200)"/>
<path style=" stroke:none;fill-rule:nonzero;fill:rgb(81.443787%,60.9375%,62.5%);fill-opacity:1;" d="M 184.179688 168.667969 L 252.90625 107.125 L 191.394531 76.183594 "/>
<path style="fill:none;stroke-width:7.7;stroke-linecap:round;stroke-linejoin:round;stroke:rgb(0%,0%,0%);stroke-opacity:1;stroke-miterlimit:10;" d="M 1841.796875 313.320312 L 2529.0625 928.75 L 1913.945312 1238.164062 Z M 1841.796875 313.320312 " transform="matrix(0.1,0,0,-0.1,0,200)"/>
<path style="fill-rule:nonzero;fill:rgb(70.701599%,52.929688%,64.451599%);fill-opacity:1;stroke-width:7.7;stroke-linecap:round;stroke-linejoin:round;stroke:rgb(0%,0%,0%);stroke-opacity:1;stroke-miterlimit:10;" d="M 886.796875 75.742188 L 1841.796875 313.320312 L 1913.945312 1238.164062 " transform="matrix(0.1,0,0,-0.1,0,200)"/>
<path style=" stroke:none;fill-rule:nonzero;fill:rgb(70.701599%,52.929688%,64.451599%);fill-opacity:1;" d="M 32.875 116.496094 L 88.679688 192.425781 L 191.394531 76.183594 "/>
<path style="fill:none;stroke-width:7.7;stroke-linecap:round;stroke-linejoin:round;stroke:rgb(0%,0%,0%);stroke-opacity:1;stroke-miterlimit:10;" d="M 328.75 835.039062 L 886.796875 75.742188 " transform="matrix(0.1,0,0,-0.1,0,200)"/>
<path style="fill-rule:nonzero;fill:rgb(70.701599%,52.929688%,64.451599%);fill-opacity:1;stroke-width:7.7;stroke-linecap:round;stroke-linejoin:round;stroke:rgb(0%,0%,0%);stroke-opacity:1;stroke-miterlimit:10;" d="M 1913.945312 1238.164062 L 958.984375 1579.0625 L 328.75 835.039062 " transform="matrix(0.1,0,0,-0.1,0,200)"/>
</g>
</svg>

<svg xmlns="http://www.w3.org/2000/svg" width="260pt" height="200pt" viewBox="0 0 260 200" version="1.2"><path style="stroke:none;fill-rule:nonzero;fill:#c7a2b3;fill-opacity:1" d="m89.43 151.984-82.938 17.11L37.41 80.219"/><path style="fill:none;stroke-width:7.7;stroke-linecap:round;stroke-linejoin:round;stroke:#000;stroke-opacity:1;stroke-miterlimit:10" d="M894.297 480.156 64.922 309.062l309.18 888.75Zm0 0" transform="matrix(.1 0 0 -.1 0 200)"/><path style="stroke:none;fill-rule:nonzero;fill:#a9c4ed;fill-opacity:1" d="M88.68 192.426 6.492 169.094l82.938-17.11"/><path style="fill:none;stroke-width:7.7;stroke-linecap:round;stroke-linejoin:round;stroke:#000;stroke-opacity:1;stroke-miterlimit:10" d="M886.797 75.742 64.922 309.062l829.375 171.094Zm0 0" transform="matrix(.1 0 0 -.1 0 200)"/><path style="fill-rule:nonzero;fill:#90b0ec;fill-opacity:1;stroke-width:7.7;stroke-linecap:round;stroke-linejoin:round;stroke:#000;stroke-opacity:1;stroke-miterlimit:10" d="m894.297 480.156 891.797 224.063 55.703-390.899M1841.797 313.32l-955-237.578 7.5 404.414" transform="matrix(.1 0 0 -.1 0 200)"/><path style="fill-rule:nonzero;fill:#b488a6;fill-opacity:1;stroke-width:7.7;stroke-linecap:round;stroke-linejoin:round;stroke:#000;stroke-opacity:1;stroke-miterlimit:10" d="M1786.094 704.219 894.297 480.156l-520.195 717.657" transform="matrix(.1 0 0 -.1 0 200)"/><path style="stroke:none;fill-rule:nonzero;fill:#9a74a6;fill-opacity:1" d="m185.184 42.313 67.722 64.812-74.297 22.453"/><path style="fill:none;stroke-width:7.7;stroke-linecap:round;stroke-linejoin:round;stroke:#000;stroke-opacity:1;stroke-miterlimit:10" d="m1851.836 1576.875 677.226-648.125-742.968-224.531Zm0 0" transform="matrix(.1 0 0 -.1 0 200)"/><path style="stroke:none;fill-rule:nonzero;fill:#7595e4;fill-opacity:1" d="m184.18 168.668-5.57-39.09 74.296-22.453"/><path style="fill:none;stroke-width:7.7;stroke-linecap:round;stroke-linejoin:round;stroke:#000;stroke-opacity:1;stroke-miterlimit:10" d="m1841.797 313.32-55.703 390.899 742.968 224.531Zm0 0" transform="matrix(.1 0 0 -.1 0 200)"/><path style="fill-rule:nonzero;fill:#b488a6;fill-opacity:1;stroke-width:7.7;stroke-linecap:round;stroke-linejoin:round;stroke:#000;stroke-opacity:1;stroke-miterlimit:10" d="m961.875 1898.125 889.96-321.25-65.741-872.656" transform="matrix(.1 0 0 -.1 0 200)"/><path style="stroke:none;fill-rule:nonzero;fill:#b488a6;fill-opacity:1" d="m37.41 80.219 58.778-70.031 82.421 119.39"/><path style="fill:none;stroke-width:7.7;stroke-linecap:round;stroke-linejoin:round;stroke:#000;stroke-opacity:1;stroke-miterlimit:10" d="m374.102 1197.813 587.773 700.312" transform="matrix(.1 0 0 -.1 0 200)"/><path style="stroke:none;fill-rule:nonzero;fill:#000082;fill-opacity:1" d="M32.875 116.496 37.41 80.22 6.492 169.094"/><path style="fill:none;stroke-width:7.7;stroke-linecap:round;stroke-linejoin:round;stroke:#000;stroke-opacity:1;stroke-miterlimit:10" d="m328.75 835.04 45.352 362.773-309.18-888.75Zm0 0" transform="matrix(.1 0 0 -.1 0 200)"/><path style="fill-rule:nonzero;fill:#1953cc;fill-opacity:1;stroke-width:7.7;stroke-linecap:round;stroke-linejoin:round;stroke:#000;stroke-opacity:1;stroke-miterlimit:10" d="m961.875 1898.125-587.773-700.313L328.75 835.04" transform="matrix(.1 0 0 -.1 0 200)"/><path style="stroke:none;fill-rule:nonzero;fill:#d5f7e3;fill-opacity:1" d="m191.395 76.184 61.511 30.941-67.722-64.813"/><path style="fill:none;stroke-width:7.7;stroke-linecap:round;stroke-linejoin:round;stroke:#000;stroke-opacity:1;stroke-miterlimit:10" d="m1913.945 1238.164 615.118-309.414-677.227 648.125Zm0 0" transform="matrix(.1 0 0 -.1 0 200)"/><path style="fill-rule:nonzero;fill:#bde4f2;fill-opacity:1;stroke-width:7.7;stroke-linecap:round;stroke-linejoin:round;stroke:#000;stroke-opacity:1;stroke-miterlimit:10" d="m1851.836 1576.875-889.961 321.25-2.89-319.063" transform="matrix(.1 0 0 -.1 0 200)"/><path style="fill-rule:nonzero;fill:#bde4f2;fill-opacity:1;stroke-width:7.7;stroke-linecap:round;stroke-linejoin:round;stroke:#000;stroke-opacity:1;stroke-miterlimit:10" d="m958.984 1579.063 954.961-340.899-62.11 338.711" transform="matrix(.1 0 0 -.1 0 200)"/><path style="stroke:none;fill-rule:nonzero;fill:#925a8a;fill-opacity:1" d="M32.875 116.496 6.492 169.094l82.188 23.332"/><path style="fill:none;stroke-width:7.7;stroke-linecap:round;stroke-linejoin:round;stroke:#000;stroke-opacity:1;stroke-miterlimit:10" d="M328.75 835.04 64.922 309.062l821.875-233.32Zm0 0" transform="matrix(.1 0 0 -.1 0 200)"/><path style="fill-rule:nonzero;fill:#1953cc;fill-opacity:1;stroke-width:7.7;stroke-linecap:round;stroke-linejoin:round;stroke:#000;stroke-opacity:1;stroke-miterlimit:10" d="m328.75 835.04 630.234 744.023 2.891 319.062" transform="matrix(.1 0 0 -.1 0 200)"/><path style="stroke:none;fill-rule:nonzero;fill:#d09b9f;fill-opacity:1" d="m184.18 168.668 68.726-61.543-61.511-30.941"/><path style="fill:none;stroke-width:7.7;stroke-linecap:round;stroke-linejoin:round;stroke:#000;stroke-opacity:1;stroke-miterlimit:10" d="m1841.797 313.32 687.265 615.43-615.117 309.414Zm0 0" transform="matrix(.1 0 0 -.1 0 200)"/><path style="fill-rule:nonzero;fill:#b487a4;fill-opacity:1;stroke-width:7.7;stroke-linecap:round;stroke-linejoin:round;stroke:#000;stroke-opacity:1;stroke-miterlimit:10" d="m886.797 75.742 955 237.578 72.148 924.844" transform="matrix(.1 0 0 -.1 0 200)"/><path style="stroke:none;fill-rule:nonzero;fill:#b487a4;fill-opacity:1" d="m32.875 116.496 55.805 75.93L191.395 76.184"/><path style="fill:none;stroke-width:7.7;stroke-linecap:round;stroke-linejoin:round;stroke:#000;stroke-opacity:1;stroke-miterlimit:10" d="M328.75 835.04 886.797 75.741" transform="matrix(.1 0 0 -.1 0 200)"/><path style="fill-rule:nonzero;fill:#b487a4;fill-opacity:1;stroke-width:7.7;stroke-linecap:round;stroke-linejoin:round;stroke:#000;stroke-opacity:1;stroke-miterlimit:10" d="m1913.945 1238.164-954.96 340.899L328.75 835.038" transform="matrix(.1 0 0 -.1 0 200)"/></svg>
